X: 14008
T: Frank Roche's
R: strathspey
M: 4/4
K: Dmajor
A,|[D/A,/][D3/2A,3/2]F2 {F}E>DB,>F|G<GG>A B>AF<d|A<FF>D GBFD|E<B,BC D3/2:|
A|d>dAd FdDd|d>dfd {c}B2Bc|d<fcA BdAF|G>BAc (3dAG (3FED|
d>dAd FdDd|d>dfd {c}B2Bc|d>fcA BdAF|E<B,BC D3/2||

